; Generated by N3XT Slicer
; Layer height: 0.200
; Nozzle diameter: 0.400

G21 ; Set units to millimeters
G90 ; Use absolute positioning
M83 ; Use relative distances for extrusion
M104 S215.000 ; Set nozzle temperature
M140 S60.000 ; Set bed temperature
M190 S60.000 ; Wait for bed temperature
M109 S215.000 ; Wait for nozzle temperature

G28 ; Home all axes
G1 Z0.200 F1200.000
G1 X25 Y5 F7200.000 ; move to prime start
G92 E0 ; reset extruder
G1 X250 Y5 E10 F1200.000 ; print prime line
G92 E0 ; reset extruder

; LAYER:0
G1 Z0.200 F3600.000
M106 S0 ; fan
G0 X0.000 Y0.000 F7200.000
G92 E0
G1 F1200.000
G1 X30.000 Y0.000 E1.078
G1 X30.000 Y30.000 E1.078
G1 X0.000 Y30.000 E1.078
G1 X0.000 Y0.000 E1.078
G1 X0.000 Y0.000 E0.000
G0 X29.520 Y0.480 F7200.000
G92 E0
G1 F1200.000
G1 X29.520 Y29.520 E1.043
G1 X0.480 Y29.520 E1.043
G1 X0.480 Y0.480 E1.043
G1 X29.520 Y0.480 E1.043
G0 X29.040 Y0.960 F7200.000
G92 E0
G1 F1200.000
G1 X29.040 Y29.040 E1.009
G1 X0.960 Y29.040 E1.009
G1 X0.960 Y0.960 E1.009
G1 X29.040 Y0.960 E1.009

; LAYER:1
G1 Z0.400 F3600.000
M106 S255 ; fan
G0 X0.000 Y30.000 F7200.000
G92 E0
G1 F3600.000
G1 X30.000 Y30.000 E1.078
G1 X30.000 Y0.000 E1.078
G1 X0.000 Y0.000 E1.078
G1 X0.000 Y30.000 E1.078
G1 X0.000 Y30.000 E0.000
G0 X29.520 Y0.480 F7200.000
G92 E0
G1 F3600.000
G1 X0.480 Y0.480 E1.043
G1 X0.480 Y29.520 E1.043
G1 X29.520 Y29.520 E1.043
G1 X29.520 Y0.480 E1.043
G0 X29.040 Y0.960 F7200.000
G92 E0
G1 F3600.000
G1 X0.960 Y0.960 E1.009
G1 X0.960 Y29.040 E1.009
G1 X29.040 Y29.040 E1.009
G1 X29.040 Y0.960 E1.009

; LAYER:2
G1 Z0.600 F3600.000
M106 S255 ; fan
G0 X0.000 Y30.000 F7200.000
G92 E0
G1 F3600.000
G1 X30.000 Y30.000 E1.078
G1 X30.000 Y0.000 E1.078
G1 X0.000 Y0.000 E1.078
G1 X0.000 Y30.000 E1.078
G1 X0.000 Y30.000 E0.000
G0 X29.520 Y0.480 F7200.000
G92 E0
G1 F3600.000
G1 X0.480 Y0.480 E1.043
G1 X0.480 Y29.520 E1.043
G1 X29.520 Y29.520 E1.043
G1 X29.520 Y0.480 E1.043
G0 X29.040 Y0.960 F7200.000
G92 E0
G1 F3600.000
G1 X0.960 Y0.960 E1.009
G1 X0.960 Y29.040 E1.009
G1 X29.040 Y29.040 E1.009
G1 X29.040 Y0.960 E1.009

; LAYER:3
G1 Z0.800 F3600.000
M106 S255 ; fan
G0 X0.000 Y30.000 F7200.000
G92 E0
G1 F3600.000
G1 X30.000 Y30.000 E1.078
G1 X30.000 Y0.000 E1.078
G1 X0.000 Y0.000 E1.078
G1 X0.000 Y30.000 E1.078
G1 X0.000 Y30.000 E0.000
G0 X29.520 Y0.480 F7200.000
G92 E0
G1 F3600.000
G1 X0.480 Y0.480 E1.043
G1 X0.480 Y29.520 E1.043
G1 X29.520 Y29.520 E1.043
G1 X29.520 Y0.480 E1.043
G0 X29.040 Y0.960 F7200.000
G92 E0
G1 F3600.000
G1 X0.960 Y0.960 E1.009
G1 X0.960 Y29.040 E1.009
G1 X29.040 Y29.040 E1.009
G1 X29.040 Y0.960 E1.009

; LAYER:4
G1 Z1.000 F3600.000
M106 S255 ; fan
G0 X0.000 Y30.000 F7200.000
G92 E0
G1 F3600.000
G1 X30.000 Y30.000 E1.078
G1 X30.000 Y0.000 E1.078
G1 X0.000 Y0.000 E1.078
G1 X0.000 Y30.000 E1.078
G1 X0.000 Y30.000 E0.000
G0 X29.520 Y0.480 F7200.000
G92 E0
G1 F3600.000
G1 X0.480 Y0.480 E1.043
G1 X0.480 Y29.520 E1.043
G1 X29.520 Y29.520 E1.043
G1 X29.520 Y0.480 E1.043
G0 X29.040 Y0.960 F7200.000
G92 E0
G1 F3600.000
G1 X0.960 Y0.960 E1.009
G1 X0.960 Y29.040 E1.009
G1 X29.040 Y29.040 E1.009
G1 X29.040 Y0.960 E1.009

; LAYER:5
G1 Z1.200 F3600.000
M106 S255 ; fan
G0 X0.000 Y30.000 F7200.000
G92 E0
G1 F3600.000
G1 X30.000 Y30.000 E1.078
G1 X30.000 Y0.000 E1.078
G1 X0.000 Y0.000 E1.078
G1 X0.000 Y30.000 E1.078
G1 X0.000 Y30.000 E0.000
G0 X29.520 Y0.480 F7200.000
G92 E0
G1 F3600.000
G1 X0.480 Y0.480 E1.043
G1 X0.480 Y29.520 E1.043
G1 X29.520 Y29.520 E1.043
G1 X29.520 Y0.480 E1.043
G0 X29.040 Y0.960 F7200.000
G92 E0
G1 F3600.000
G1 X0.960 Y0.960 E1.009
G1 X0.960 Y29.040 E1.009
G1 X29.040 Y29.040 E1.009
G1 X29.040 Y0.960 E1.009

; LAYER:6
G1 Z1.400 F3600.000
M106 S255 ; fan
G0 X0.000 Y30.000 F7200.000
G92 E0
G1 F3600.000
G1 X30.000 Y30.000 E1.078
G1 X30.000 Y0.000 E1.078
G1 X0.000 Y0.000 E1.078
G1 X0.000 Y30.000 E1.078
G1 X0.000 Y30.000 E0.000
G0 X29.520 Y0.480 F7200.000
G92 E0
G1 F3600.000
G1 X0.480 Y0.480 E1.043
G1 X0.480 Y29.520 E1.043
G1 X29.520 Y29.520 E1.043
G1 X29.520 Y0.480 E1.043
G0 X29.040 Y0.960 F7200.000
G92 E0
G1 F3600.000
G1 X0.960 Y0.960 E1.009
G1 X0.960 Y29.040 E1.009
G1 X29.040 Y29.040 E1.009
G1 X29.040 Y0.960 E1.009

; LAYER:7
G1 Z1.600 F3600.000
M106 S255 ; fan
G0 X0.000 Y30.000 F7200.000
G92 E0
G1 F3600.000
G1 X30.000 Y30.000 E1.078
G1 X30.000 Y0.000 E1.078
G1 X0.000 Y0.000 E1.078
G1 X0.000 Y30.000 E1.078
G1 X0.000 Y30.000 E0.000
G0 X29.520 Y0.480 F7200.000
G92 E0
G1 F3600.000
G1 X0.480 Y0.480 E1.043
G1 X0.480 Y29.520 E1.043
G1 X29.520 Y29.520 E1.043
G1 X29.520 Y0.480 E1.043
G0 X29.040 Y0.960 F7200.000
G92 E0
G1 F3600.000
G1 X0.960 Y0.960 E1.009
G1 X0.960 Y29.040 E1.009
G1 X29.040 Y29.040 E1.009
G1 X29.040 Y0.960 E1.009

; LAYER:8
G1 Z1.800 F3600.000
M106 S255 ; fan
G0 X0.000 Y30.000 F7200.000
G92 E0
G1 F3600.000
G1 X30.000 Y30.000 E1.078
G1 X30.000 Y0.000 E1.078
G1 X0.000 Y0.000 E1.078
G1 X0.000 Y30.000 E1.078
G1 X0.000 Y30.000 E0.000
G0 X29.520 Y0.480 F7200.000
G92 E0
G1 F3600.000
G1 X0.480 Y0.480 E1.043
G1 X0.480 Y29.520 E1.043
G1 X29.520 Y29.520 E1.043
G1 X29.520 Y0.480 E1.043
G0 X29.040 Y0.960 F7200.000
G92 E0
G1 F3600.000
G1 X0.960 Y0.960 E1.009
G1 X0.960 Y29.040 E1.009
G1 X29.040 Y29.040 E1.009
G1 X29.040 Y0.960 E1.009

; LAYER:9
G1 Z2.000 F3600.000
M106 S255 ; fan
G0 X0.000 Y30.000 F7200.000
G92 E0
G1 F3600.000
G1 X30.000 Y30.000 E1.078
G1 X30.000 Y0.000 E1.078
G1 X0.000 Y0.000 E1.078
G1 X0.000 Y30.000 E1.078
G1 X0.000 Y30.000 E0.000
G0 X29.520 Y0.480 F7200.000
G92 E0
G1 F3600.000
G1 X0.480 Y0.480 E1.043
G1 X0.480 Y29.520 E1.043
G1 X29.520 Y29.520 E1.043
G1 X29.520 Y0.480 E1.043
G0 X29.040 Y0.960 F7200.000
G92 E0
G1 F3600.000
G1 X0.960 Y0.960 E1.009
G1 X0.960 Y29.040 E1.009
G1 X29.040 Y29.040 E1.009
G1 X29.040 Y0.960 E1.009

; LAYER:10
G1 Z2.200 F3600.000
M106 S255 ; fan
G0 X0.000 Y30.000 F7200.000
G92 E0
G1 F3600.000
G1 X30.000 Y30.000 E1.078
G1 X30.000 Y0.000 E1.078
G1 X0.000 Y0.000 E1.078
G1 X0.000 Y30.000 E1.078
G1 X0.000 Y30.000 E0.000
G0 X29.520 Y0.480 F7200.000
G92 E0
G1 F3600.000
G1 X0.480 Y0.480 E1.043
G1 X0.480 Y29.520 E1.043
G1 X29.520 Y29.520 E1.043
G1 X29.520 Y0.480 E1.043
G0 X29.040 Y0.960 F7200.000
G92 E0
G1 F3600.000
G1 X0.960 Y0.960 E1.009
G1 X0.960 Y29.040 E1.009
G1 X29.040 Y29.040 E1.009
G1 X29.040 Y0.960 E1.009

; LAYER:11
G1 Z2.400 F3600.000
M106 S255 ; fan
G0 X0.000 Y30.000 F7200.000
G92 E0
G1 F3600.000
G1 X30.000 Y30.000 E1.078
G1 X30.000 Y0.000 E1.078
G1 X0.000 Y0.000 E1.078
G1 X0.000 Y30.000 E1.078
G1 X0.000 Y30.000 E0.000
G0 X29.520 Y0.480 F7200.000
G92 E0
G1 F3600.000
G1 X0.480 Y0.480 E1.043
G1 X0.480 Y29.520 E1.043
G1 X29.520 Y29.520 E1.043
G1 X29.520 Y0.480 E1.043
G0 X29.040 Y0.960 F7200.000
G92 E0
G1 F3600.000
G1 X0.960 Y0.960 E1.009
G1 X0.960 Y29.040 E1.009
G1 X29.040 Y29.040 E1.009
G1 X29.040 Y0.960 E1.009

; LAYER:12
G1 Z2.600 F3600.000
M106 S255 ; fan
G0 X0.000 Y30.000 F7200.000
G92 E0
G1 F3600.000
G1 X30.000 Y30.000 E1.078
G1 X30.000 Y0.000 E1.078
G1 X0.000 Y0.000 E1.078
G1 X0.000 Y30.000 E1.078
G1 X0.000 Y30.000 E0.000
G0 X29.520 Y0.480 F7200.000
G92 E0
G1 F3600.000
G1 X0.480 Y0.480 E1.043
G1 X0.480 Y29.520 E1.043
G1 X29.520 Y29.520 E1.043
G1 X29.520 Y0.480 E1.043
G0 X29.040 Y0.960 F7200.000
G92 E0
G1 F3600.000
G1 X0.960 Y0.960 E1.009
G1 X0.960 Y29.040 E1.009
G1 X29.040 Y29.040 E1.009
G1 X29.040 Y0.960 E1.009

; LAYER:13
G1 Z2.800 F3600.000
M106 S255 ; fan
G0 X0.000 Y30.000 F7200.000
G92 E0
G1 F3600.000
G1 X30.000 Y30.000 E1.078
G1 X30.000 Y0.000 E1.078
G1 X0.000 Y0.000 E1.078
G1 X0.000 Y30.000 E1.078
G1 X0.000 Y30.000 E0.000
G0 X29.520 Y0.480 F7200.000
G92 E0
G1 F3600.000
G1 X0.480 Y0.480 E1.043
G1 X0.480 Y29.520 E1.043
G1 X29.520 Y29.520 E1.043
G1 X29.520 Y0.480 E1.043
G0 X29.040 Y0.960 F7200.000
G92 E0
G1 F3600.000
G1 X0.960 Y0.960 E1.009
G1 X0.960 Y29.040 E1.009
G1 X29.040 Y29.040 E1.009
G1 X29.040 Y0.960 E1.009

; LAYER:14
G1 Z3.000 F3600.000
M106 S255 ; fan
G0 X0.000 Y30.000 F7200.000
G92 E0
G1 F3600.000
G1 X30.000 Y30.000 E1.078
G1 X30.000 Y0.000 E1.078
G1 X0.000 Y0.000 E1.078
G1 X0.000 Y30.000 E1.078
G1 X0.000 Y30.000 E0.000
G0 X29.520 Y0.480 F7200.000
G92 E0
G1 F3600.000
G1 X0.480 Y0.480 E1.043
G1 X0.480 Y29.520 E1.043
G1 X29.520 Y29.520 E1.043
G1 X29.520 Y0.480 E1.043
G0 X29.040 Y0.960 F7200.000
G92 E0
G1 F3600.000
G1 X0.960 Y0.960 E1.009
G1 X0.960 Y29.040 E1.009
G1 X29.040 Y29.040 E1.009
G1 X29.040 Y0.960 E1.009

; LAYER:15
G1 Z3.200 F3600.000
M106 S255 ; fan
G0 X0.000 Y30.000 F7200.000
G92 E0
G1 F3600.000
G1 X30.000 Y30.000 E1.078
G1 X30.000 Y0.000 E1.078
G1 X0.000 Y0.000 E1.078
G1 X0.000 Y30.000 E1.078
G1 X0.000 Y30.000 E0.000
G0 X29.520 Y0.480 F7200.000
G92 E0
G1 F3600.000
G1 X0.480 Y0.480 E1.043
G1 X0.480 Y29.520 E1.043
G1 X29.520 Y29.520 E1.043
G1 X29.520 Y0.480 E1.043
G0 X29.040 Y0.960 F7200.000
G92 E0
G1 F3600.000
G1 X0.960 Y0.960 E1.009
G1 X0.960 Y29.040 E1.009
G1 X29.040 Y29.040 E1.009
G1 X29.040 Y0.960 E1.009

; LAYER:16
G1 Z3.400 F3600.000
M106 S255 ; fan
G0 X0.000 Y30.000 F7200.000
G92 E0
G1 F3600.000
G1 X30.000 Y30.000 E1.078
G1 X30.000 Y0.000 E1.078
G1 X0.000 Y0.000 E1.078
G1 X0.000 Y30.000 E1.078
G1 X0.000 Y30.000 E0.000
G0 X29.520 Y0.480 F7200.000
G92 E0
G1 F3600.000
G1 X0.480 Y0.480 E1.043
G1 X0.480 Y29.520 E1.043
G1 X29.520 Y29.520 E1.043
G1 X29.520 Y0.480 E1.043
G0 X29.040 Y0.960 F7200.000
G92 E0
G1 F3600.000
G1 X0.960 Y0.960 E1.009
G1 X0.960 Y29.040 E1.009
G1 X29.040 Y29.040 E1.009
G1 X29.040 Y0.960 E1.009

; LAYER:17
G1 Z3.600 F3600.000
M106 S255 ; fan
G0 X0.000 Y30.000 F7200.000
G92 E0
G1 F3600.000
G1 X30.000 Y30.000 E1.078
G1 X30.000 Y0.000 E1.078
G1 X0.000 Y0.000 E1.078
G1 X0.000 Y30.000 E1.078
G1 X0.000 Y30.000 E0.000
G0 X29.520 Y0.480 F7200.000
G92 E0
G1 F3600.000
G1 X0.480 Y0.480 E1.043
G1 X0.480 Y29.520 E1.043
G1 X29.520 Y29.520 E1.043
G1 X29.520 Y0.480 E1.043
G0 X29.040 Y0.960 F7200.000
G92 E0
G1 F3600.000
G1 X0.960 Y0.960 E1.009
G1 X0.960 Y29.040 E1.009
G1 X29.040 Y29.040 E1.009
G1 X29.040 Y0.960 E1.009

; LAYER:18
G1 Z3.800 F3600.000
M106 S255 ; fan
G0 X0.000 Y30.000 F7200.000
G92 E0
G1 F3600.000
G1 X30.000 Y30.000 E1.078
G1 X30.000 Y0.000 E1.078
G1 X0.000 Y0.000 E1.078
G1 X0.000 Y30.000 E1.078
G1 X0.000 Y30.000 E0.000
G0 X29.520 Y0.480 F7200.000
G92 E0
G1 F3600.000
G1 X0.480 Y0.480 E1.043
G1 X0.480 Y29.520 E1.043
G1 X29.520 Y29.520 E1.043
G1 X29.520 Y0.480 E1.043
G0 X29.040 Y0.960 F7200.000
G92 E0
G1 F3600.000
G1 X0.960 Y0.960 E1.009
G1 X0.960 Y29.040 E1.009
G1 X29.040 Y29.040 E1.009
G1 X29.040 Y0.960 E1.009

; LAYER:19
G1 Z4.000 F3600.000
M106 S255 ; fan
G0 X0.000 Y30.000 F7200.000
G92 E0
G1 F3600.000
G1 X30.000 Y30.000 E1.078
G1 X30.000 Y0.000 E1.078
G1 X0.000 Y0.000 E1.078
G1 X0.000 Y30.000 E1.078
G1 X0.000 Y30.000 E0.000
G0 X29.520 Y0.480 F7200.000
G92 E0
G1 F3600.000
G1 X0.480 Y0.480 E1.043
G1 X0.480 Y29.520 E1.043
G1 X29.520 Y29.520 E1.043
G1 X29.520 Y0.480 E1.043
G0 X29.040 Y0.960 F7200.000
G92 E0
G1 F3600.000
G1 X0.960 Y0.960 E1.009
G1 X0.960 Y29.040 E1.009
G1 X29.040 Y29.040 E1.009
G1 X29.040 Y0.960 E1.009

; LAYER:20
G1 Z4.200 F3600.000
M106 S255 ; fan
G0 X0.000 Y30.000 F7200.000
G92 E0
G1 F3600.000
G1 X30.000 Y30.000 E1.078
G1 X30.000 Y0.000 E1.078
G1 X0.000 Y0.000 E1.078
G1 X0.000 Y30.000 E1.078
G1 X0.000 Y30.000 E0.000
G0 X29.520 Y0.480 F7200.000
G92 E0
G1 F3600.000
G1 X0.480 Y0.480 E1.043
G1 X0.480 Y29.520 E1.043
G1 X29.520 Y29.520 E1.043
G1 X29.520 Y0.480 E1.043
G0 X29.040 Y0.960 F7200.000
G92 E0
G1 F3600.000
G1 X0.960 Y0.960 E1.009
G1 X0.960 Y29.040 E1.009
G1 X29.040 Y29.040 E1.009
G1 X29.040 Y0.960 E1.009

; LAYER:21
G1 Z4.400 F3600.000
M106 S255 ; fan
G0 X0.000 Y30.000 F7200.000
G92 E0
G1 F3600.000
G1 X30.000 Y30.000 E1.078
G1 X30.000 Y0.000 E1.078
G1 X0.000 Y0.000 E1.078
G1 X0.000 Y30.000 E1.078
G1 X0.000 Y30.000 E0.000
G0 X29.520 Y0.480 F7200.000
G92 E0
G1 F3600.000
G1 X0.480 Y0.480 E1.043
G1 X0.480 Y29.520 E1.043
G1 X29.520 Y29.520 E1.043
G1 X29.520 Y0.480 E1.043
G0 X29.040 Y0.960 F7200.000
G92 E0
G1 F3600.000
G1 X0.960 Y0.960 E1.009
G1 X0.960 Y29.040 E1.009
G1 X29.040 Y29.040 E1.009
G1 X29.040 Y0.960 E1.009

; LAYER:22
G1 Z4.600 F3600.000
M106 S255 ; fan
G0 X0.000 Y30.000 F7200.000
G92 E0
G1 F3600.000
G1 X30.000 Y30.000 E1.078
G1 X30.000 Y0.000 E1.078
G1 X0.000 Y0.000 E1.078
G1 X0.000 Y30.000 E1.078
G1 X0.000 Y30.000 E0.000
G0 X29.520 Y0.480 F7200.000
G92 E0
G1 F3600.000
G1 X0.480 Y0.480 E1.043
G1 X0.480 Y29.520 E1.043
G1 X29.520 Y29.520 E1.043
G1 X29.520 Y0.480 E1.043
G0 X29.040 Y0.960 F7200.000
G92 E0
G1 F3600.000
G1 X0.960 Y0.960 E1.009
G1 X0.960 Y29.040 E1.009
G1 X29.040 Y29.040 E1.009
G1 X29.040 Y0.960 E1.009

; LAYER:23
G1 Z4.800 F3600.000
M106 S255 ; fan
G0 X0.000 Y30.000 F7200.000
G92 E0
G1 F3600.000
G1 X30.000 Y30.000 E1.078
G1 X30.000 Y0.000 E1.078
G1 X0.000 Y0.000 E1.078
G1 X0.000 Y30.000 E1.078
G1 X0.000 Y30.000 E0.000
G0 X29.520 Y0.480 F7200.000
G92 E0
G1 F3600.000
G1 X0.480 Y0.480 E1.043
G1 X0.480 Y29.520 E1.043
G1 X29.520 Y29.520 E1.043
G1 X29.520 Y0.480 E1.043
G0 X29.040 Y0.960 F7200.000
G92 E0
G1 F3600.000
G1 X0.960 Y0.960 E1.009
G1 X0.960 Y29.040 E1.009
G1 X29.040 Y29.040 E1.009
G1 X29.040 Y0.960 E1.009

; LAYER:24
G1 Z5.000 F3600.000
M106 S255 ; fan
G0 X0.000 Y30.000 F7200.000
G92 E0
G1 F3600.000
G1 X30.000 Y30.000 E1.078
G1 X30.000 Y0.000 E1.078
G1 X0.000 Y0.000 E1.078
G1 X0.000 Y30.000 E1.078
G1 X0.000 Y30.000 E0.000
G0 X29.520 Y0.480 F7200.000
G92 E0
G1 F3600.000
G1 X0.480 Y0.480 E1.043
G1 X0.480 Y29.520 E1.043
G1 X29.520 Y29.520 E1.043
G1 X29.520 Y0.480 E1.043
G0 X29.040 Y0.960 F7200.000
G92 E0
G1 F3600.000
G1 X0.960 Y0.960 E1.009
G1 X0.960 Y29.040 E1.009
G1 X29.040 Y29.040 E1.009
G1 X29.040 Y0.960 E1.009

; LAYER:25
G1 Z5.200 F3600.000
M106 S255 ; fan
G0 X0.000 Y30.000 F7200.000
G92 E0
G1 F3600.000
G1 X30.000 Y30.000 E1.078
G1 X30.000 Y0.000 E1.078
G1 X0.000 Y0.000 E1.078
G1 X0.000 Y30.000 E1.078
G1 X0.000 Y30.000 E0.000
G0 X29.520 Y0.480 F7200.000
G92 E0
G1 F3600.000
G1 X0.480 Y0.480 E1.043
G1 X0.480 Y29.520 E1.043
G1 X29.520 Y29.520 E1.043
G1 X29.520 Y0.480 E1.043
G0 X29.040 Y0.960 F7200.000
G92 E0
G1 F3600.000
G1 X0.960 Y0.960 E1.009
G1 X0.960 Y29.040 E1.009
G1 X29.040 Y29.040 E1.009
G1 X29.040 Y0.960 E1.009

; LAYER:26
G1 Z5.400 F3600.000
M106 S255 ; fan
G0 X0.000 Y30.000 F7200.000
G92 E0
G1 F3600.000
G1 X30.000 Y30.000 E1.078
G1 X30.000 Y0.000 E1.078
G1 X0.000 Y0.000 E1.078
G1 X0.000 Y30.000 E1.078
G1 X0.000 Y30.000 E0.000
G0 X29.520 Y0.480 F7200.000
G92 E0
G1 F3600.000
G1 X0.480 Y0.480 E1.043
G1 X0.480 Y29.520 E1.043
G1 X29.520 Y29.520 E1.043
G1 X29.520 Y0.480 E1.043
G0 X29.040 Y0.960 F7200.000
G92 E0
G1 F3600.000
G1 X0.960 Y0.960 E1.009
G1 X0.960 Y29.040 E1.009
G1 X29.040 Y29.040 E1.009
G1 X29.040 Y0.960 E1.009

; LAYER:27
G1 Z5.600 F3600.000
M106 S255 ; fan
G0 X0.000 Y30.000 F7200.000
G92 E0
G1 F3600.000
G1 X30.000 Y30.000 E1.078
G1 X30.000 Y0.000 E1.078
G1 X0.000 Y0.000 E1.078
G1 X0.000 Y30.000 E1.078
G1 X0.000 Y30.000 E0.000
G0 X29.520 Y0.480 F7200.000
G92 E0
G1 F3600.000
G1 X0.480 Y0.480 E1.043
G1 X0.480 Y29.520 E1.043
G1 X29.520 Y29.520 E1.043
G1 X29.520 Y0.480 E1.043
G0 X29.040 Y0.960 F7200.000
G92 E0
G1 F3600.000
G1 X0.960 Y0.960 E1.009
G1 X0.960 Y29.040 E1.009
G1 X29.040 Y29.040 E1.009
G1 X29.040 Y0.960 E1.009

; LAYER:28
G1 Z5.800 F3600.000
M106 S255 ; fan
G0 X0.000 Y30.000 F7200.000
G92 E0
G1 F3600.000
G1 X30.000 Y30.000 E1.078
G1 X30.000 Y0.000 E1.078
G1 X0.000 Y0.000 E1.078
G1 X0.000 Y30.000 E1.078
G1 X0.000 Y30.000 E0.000
G0 X29.520 Y0.480 F7200.000
G92 E0
G1 F3600.000
G1 X0.480 Y0.480 E1.043
G1 X0.480 Y29.520 E1.043
G1 X29.520 Y29.520 E1.043
G1 X29.520 Y0.480 E1.043
G0 X29.040 Y0.960 F7200.000
G92 E0
G1 F3600.000
G1 X0.960 Y0.960 E1.009
G1 X0.960 Y29.040 E1.009
G1 X29.040 Y29.040 E1.009
G1 X29.040 Y0.960 E1.009

; LAYER:29
G1 Z6.000 F3600.000
M106 S255 ; fan
G0 X0.000 Y30.000 F7200.000
G92 E0
G1 F3600.000
G1 X30.000 Y30.000 E1.078
G1 X30.000 Y0.000 E1.078
G1 X0.000 Y0.000 E1.078
G1 X0.000 Y30.000 E1.078
G1 X0.000 Y30.000 E0.000
G0 X29.520 Y0.480 F7200.000
G92 E0
G1 F3600.000
G1 X0.480 Y0.480 E1.043
G1 X0.480 Y29.520 E1.043
G1 X29.520 Y29.520 E1.043
G1 X29.520 Y0.480 E1.043
G0 X29.040 Y0.960 F7200.000
G92 E0
G1 F3600.000
G1 X0.960 Y0.960 E1.009
G1 X0.960 Y29.040 E1.009
G1 X29.040 Y29.040 E1.009
