; Generated by N3XT Slicer
; Mar 28 2025 14:55:44

; Layer height: 0.200
; Nozzle diameter: 0.400
; Filament diameter: 1.750
; Extrusion multiplier: 0.900

M73 P0 R128
M73 Q0 S129
M201 X1000 Y1000 Z1000 E5000 ; sets maximum accelerations, mm/sec^2
M203 X200 Y200 Z12 E120 ; sets maximum feedrates, mm/sec
M204 P1250 R1250 T1250 ; sets acceleration (P, T) and retract acceleration (R), mm/sec^2
M205 X8.00 Y8.00 Z0.40 E2.50 ; sets the jerk limits, mm/sec
M205 S0 T0 ; sets the minimum extruding and travel feed rate, mm/sec
M107 ; disable fan
M862.1 P0.400 ; nozzle diameter check
M115 U3.8.1 ; tell printer latest fw version
G90 ; use absolute coordinates
M83 ; extruder relative mode
M104 S215.000 ; set extruder temp
M140 S60.000 ; set bed temp
M190 S60.000 ; wait for bed temp
M109 S215.000 ; wait for extruder temp
G28 W ; home all without mesh bed level
G80 ; mesh bed leveling
G1 Y-3.0 F7200.000 ; go outside print area
G92 E0.0
G1 X60.0 E9.0 F1200.000 ; intro line
M73 Q0 S129
M73 P0 R128
G1 X100.0 E12.5 F1200.000 ; intro line
G92 E0.0
M221 S90.000 ; set flow multiplier
G21 ; set units to millimeters
G90 ; use absolute coordinates
M83 ; use relative distances for extrusion

;LAYER:0
G1 Z0.200 F3600.000
M107 ; fan off for first layer
G0 X0.000 Y0.000 F7200.000
G92 E0 ; reset extruder
G1 F1200.000
G1 X30.000 Y0.000 E0.943
G1 X30.000 Y30.000 E0.943
G1 X0.000 Y30.000 E0.943
G1 X0.000 Y0.000 E0.943
G1 X0.000 Y0.000 E0.000
G0 X29.520 Y0.480 F7200.000
G92 E0 ; reset extruder
G1 F1200.000
G1 X29.520 Y29.520 E0.913
G1 X0.480 Y29.520 E0.913
G1 X0.480 Y0.480 E0.913
G1 X29.520 Y0.480 E0.913
G0 X29.040 Y0.960 F7200.000
G92 E0 ; reset extruder
G1 F1200.000
G1 X29.040 Y29.040 E0.883
G1 X0.960 Y29.040 E0.883
G1 X0.960 Y0.960 E0.883
G1 X29.040 Y0.960 E0.883

;LAYER:1
G1 Z0.400 F3600.000
M106 S50 ; fan 50% for second layer
G0 X0.000 Y30.000 F7200.000
G92 E0 ; reset extruder
G1 F3600.000
G1 X30.000 Y30.000 E0.943
G1 X30.000 Y0.000 E0.943
G1 X0.000 Y0.000 E0.943
G1 X0.000 Y30.000 E0.943
G1 X0.000 Y30.000 E0.000
G0 X29.520 Y0.480 F7200.000
G92 E0 ; reset extruder
G1 F3600.000
G1 X0.480 Y0.480 E0.913
G1 X0.480 Y29.520 E0.913
G1 X29.520 Y29.520 E0.913
G1 X29.520 Y0.480 E0.913
G0 X29.040 Y0.960 F7200.000
G92 E0 ; reset extruder
G1 F3600.000
G1 X0.960 Y0.960 E0.883
G1 X0.960 Y29.040 E0.883
G1 X29.040 Y29.040 E0.883
G1 X29.040 Y0.960 E0.883

;LAYER:2
G1 Z0.600 F3600.000
M106 S100 ; full fan from third layer
G0 X0.000 Y30.000 F7200.000
G92 E0 ; reset extruder
G1 F3600.000
G1 X30.000 Y30.000 E0.943
G1 X30.000 Y0.000 E0.943
G1 X0.000 Y0.000 E0.943
G1 X0.000 Y30.000 E0.943
G1 X0.000 Y30.000 E0.000
G0 X29.520 Y0.480 F7200.000
G92 E0 ; reset extruder
G1 F3600.000
G1 X0.480 Y0.480 E0.913
G1 X0.480 Y29.520 E0.913
G1 X29.520 Y29.520 E0.913
G1 X29.520 Y0.480 E0.913
G0 X29.040 Y0.960 F7200.000
G92 E0 ; reset extruder
G1 F3600.000
G1 X0.960 Y0.960 E0.883
G1 X0.960 Y29.040 E0.883
G1 X29.040 Y29.040 E0.883
G1 X29.040 Y0.960 E0.883

;LAYER:3
G1 Z0.800 F3600.000
G0 X0.000 Y30.000 F7200.000
G92 E0 ; reset extruder
G1 F3600.000
G1 X30.000 Y30.000 E0.943
G1 X30.000 Y0.000 E0.943
G1 X0.000 Y0.000 E0.943
G1 X0.000 Y30.000 E0.943
G1 X0.000 Y30.000 E0.000
G0 X29.520 Y0.480 F7200.000
G92 E0 ; reset extruder
G1 F3600.000
G1 X0.480 Y0.480 E0.913
G1 X0.480 Y29.520 E0.913
G1 X29.520 Y29.520 E0.913
G1 X29.520 Y0.480 E0.913
G0 X29.040 Y0.960 F7200.000
G92 E0 ; reset extruder
G1 F3600.000
G1 X0.960 Y0.960 E0.883
G1 X0.960 Y29.040 E0.883
G1 X29.040 Y29.040 E0.883
G1 X29.040 Y0.960 E0.883

;LAYER:4
G1 Z1.000 F3600.000
G0 X0.000 Y30.000 F7200.000
G92 E0 ; reset extruder
G1 F3600.000
G1 X30.000 Y30.000 E0.943
G1 X30.000 Y0.000 E0.943
G1 X0.000 Y0.000 E0.943
G1 X0.000 Y30.000 E0.943
G1 X0.000 Y30.000 E0.000
G0 X29.520 Y0.480 F7200.000
G92 E0 ; reset extruder
G1 F3600.000
G1 X0.480 Y0.480 E0.913
G1 X0.480 Y29.520 E0.913
G1 X29.520 Y29.520 E0.913
G1 X29.520 Y0.480 E0.913
G0 X29.040 Y0.960 F7200.000
G92 E0 ; reset extruder
G1 F3600.000
G1 X0.960 Y0.960 E0.883
G1 X0.960 Y29.040 E0.883
G1 X29.040 Y29.040 E0.883
G1 X29.040 Y0.960 E0.883

;LAYER:5
G1 Z1.200 F3600.000
G0 X0.000 Y30.000 F7200.000
G92 E0 ; reset extruder
G1 F3600.000
G1 X30.000 Y30.000 E0.943
G1 X30.000 Y0.000 E0.943
G1 X0.000 Y0.000 E0.943
G1 X0.000 Y30.000 E0.943
G1 X0.000 Y30.000 E0.000
G0 X29.520 Y0.480 F7200.000
G92 E0 ; reset extruder
G1 F3600.000
G1 X0.480 Y0.480 E0.913
G1 X0.480 Y29.520 E0.913
G1 X29.520 Y29.520 E0.913
G1 X29.520 Y0.480 E0.913
G0 X29.040 Y0.960 F7200.000
G92 E0 ; reset extruder
G1 F3600.000
G1 X0.960 Y0.960 E0.883
G1 X0.960 Y29.040 E0.883
G1 X29.040 Y29.040 E0.883
G1 X29.040 Y0.960 E0.883

;LAYER:6
G1 Z1.400 F3600.000
G0 X0.000 Y30.000 F7200.000
G92 E0 ; reset extruder
G1 F3600.000
G1 X30.000 Y30.000 E0.943
G1 X30.000 Y0.000 E0.943
G1 X0.000 Y0.000 E0.943
G1 X0.000 Y30.000 E0.943
G1 X0.000 Y30.000 E0.000
G0 X29.520 Y0.480 F7200.000
G92 E0 ; reset extruder
G1 F3600.000
G1 X0.480 Y0.480 E0.913
G1 X0.480 Y29.520 E0.913
G1 X29.520 Y29.520 E0.913
G1 X29.520 Y0.480 E0.913
G0 X29.040 Y0.960 F7200.000
G92 E0 ; reset extruder
G1 F3600.000
G1 X0.960 Y0.960 E0.883
G1 X0.960 Y29.040 E0.883
G1 X29.040 Y29.040 E0.883
G1 X29.040 Y0.960 E0.883

;LAYER:7
G1 Z1.600 F3600.000
G0 X0.000 Y30.000 F7200.000
G92 E0 ; reset extruder
G1 F3600.000
G1 X30.000 Y30.000 E0.943
G1 X30.000 Y0.000 E0.943
G1 X0.000 Y0.000 E0.943
G1 X0.000 Y30.000 E0.943
G1 X0.000 Y30.000 E0.000
G0 X29.520 Y0.480 F7200.000
G92 E0 ; reset extruder
G1 F3600.000
G1 X0.480 Y0.480 E0.913
G1 X0.480 Y29.520 E0.913
G1 X29.520 Y29.520 E0.913
G1 X29.520 Y0.480 E0.913
G0 X29.040 Y0.960 F7200.000
G92 E0 ; reset extruder
G1 F3600.000
G1 X0.960 Y0.960 E0.883
G1 X0.960 Y29.040 E0.883
G1 X29.040 Y29.040 E0.883
G1 X29.040 Y0.960 E0.883

;LAYER:8
G1 Z1.800 F3600.000
G0 X0.000 Y30.000 F7200.000
G92 E0 ; reset extruder
G1 F3600.000
G1 X30.000 Y30.000 E0.943
G1 X30.000 Y0.000 E0.943
G1 X0.000 Y0.000 E0.943
G1 X0.000 Y30.000 E0.943
G1 X0.000 Y30.000 E0.000
G0 X29.520 Y0.480 F7200.000
G92 E0 ; reset extruder
G1 F3600.000
G1 X0.480 Y0.480 E0.913
G1 X0.480 Y29.520 E0.913
G1 X29.520 Y29.520 E0.913
G1 X29.520 Y0.480 E0.913
G0 X29.040 Y0.960 F7200.000
G92 E0 ; reset extruder
G1 F3600.000
G1 X0.960 Y0.960 E0.883
G1 X0.960 Y29.040 E0.883
G1 X29.040 Y29.040 E0.883
G1 X29.040 Y0.960 E0.883

;LAYER:9
G1 Z2.000 F3600.000
G0 X0.000 Y30.000 F7200.000
G92 E0 ; reset extruder
G1 F3600.000
G1 X30.000 Y30.000 E0.943
G1 X30.000 Y0.000 E0.943
G1 X0.000 Y0.000 E0.943
G1 X0.000 Y30.000 E0.943
G1 X0.000 Y30.000 E0.000
G0 X29.520 Y0.480 F7200.000
G92 E0 ; reset extruder
G1 F3600.000
G1 X0.480 Y0.480 E0.913
G1 X0.480 Y29.520 E0.913
G1 X29.520 Y29.520 E0.913
G1 X29.520 Y0.480 E0.913
G0 X29.040 Y0.960 F7200.000
G92 E0 ; reset extruder
G1 F3600.000
G1 X0.960 Y0.960 E0.883
G1 X0.960 Y29.040 E0.883
G1 X29.040 Y29.040 E0.883
G1 X29.040 Y0.960 E0.883

;LAYER:10
G1 Z2.200 F3600.000
G0 X0.000 Y30.000 F7200.000
G92 E0 ; reset extruder
G1 F3600.000
G1 X30.000 Y30.000 E0.943
G1 X30.000 Y0.000 E0.943
G1 X0.000 Y0.000 E0.943
G1 X0.000 Y30.000 E0.943
G1 X0.000 Y30.000 E0.000
G0 X29.520 Y0.480 F7200.000
G92 E0 ; reset extruder
G1 F3600.000
G1 X0.480 Y0.480 E0.913
G1 X0.480 Y29.520 E0.913
G1 X29.520 Y29.520 E0.913
G1 X29.520 Y0.480 E0.913
G0 X29.040 Y0.960 F7200.000
G92 E0 ; reset extruder
G1 F3600.000
G1 X0.960 Y0.960 E0.883
G1 X0.960 Y29.040 E0.883
G1 X29.040 Y29.040 E0.883
G1 X29.040 Y0.960 E0.883

;LAYER:11
G1 Z2.400 F3600.000
G0 X0.000 Y30.000 F7200.000
G92 E0 ; reset extruder
G1 F3600.000
G1 X30.000 Y30.000 E0.943
G1 X30.000 Y0.000 E0.943
G1 X0.000 Y0.000 E0.943
G1 X0.000 Y30.000 E0.943
G1 X0.000 Y30.000 E0.000
G0 X29.520 Y0.480 F7200.000
G92 E0 ; reset extruder
G1 F3600.000
G1 X0.480 Y0.480 E0.913
G1 X0.480 Y29.520 E0.913
G1 X29.520 Y29.520 E0.913
G1 X29.520 Y0.480 E0.913
G0 X29.040 Y0.960 F7200.000
G92 E0 ; reset extruder
G1 F3600.000
G1 X0.960 Y0.960 E0.883
G1 X0.960 Y29.040 E0.883
G1 X29.040 Y29.040 E0.883
G1 X29.040 Y0.960 E0.883

;LAYER:12
G1 Z2.600 F3600.000
G0 X0.000 Y30.000 F7200.000
G92 E0 ; reset extruder
G1 F3600.000
G1 X30.000 Y30.000 E0.943
G1 X30.000 Y0.000 E0.943
G1 X0.000 Y0.000 E0.943
G1 X0.000 Y30.000 E0.943
G1 X0.000 Y30.000 E0.000
G0 X29.520 Y0.480 F7200.000
G92 E0 ; reset extruder
G1 F3600.000
G1 X0.480 Y0.480 E0.913
G1 X0.480 Y29.520 E0.913
G1 X29.520 Y29.520 E0.913
G1 X29.520 Y0.480 E0.913
G0 X29.040 Y0.960 F7200.000
G92 E0 ; reset extruder
G1 F3600.000
G1 X0.960 Y0.960 E0.883
G1 X0.960 Y29.040 E0.883
G1 X29.040 Y29.040 E0.883
G1 X29.040 Y0.960 E0.883

;LAYER:13
G1 Z2.800 F3600.000
G0 X0.000 Y30.000 F7200.000
G92 E0 ; reset extruder
G1 F3600.000
G1 X30.000 Y30.000 E0.943
G1 X30.000 Y0.000 E0.943
G1 X0.000 Y0.000 E0.943
G1 X0.000 Y30.000 E0.943
G1 X0.000 Y30.000 E0.000
G0 X29.520 Y0.480 F7200.000
G92 E0 ; reset extruder
G1 F3600.000
G1 X0.480 Y0.480 E0.913
G1 X0.480 Y29.520 E0.913
G1 X29.520 Y29.520 E0.913
G1 X29.520 Y0.480 E0.913
G0 X29.040 Y0.960 F7200.000
G92 E0 ; reset extruder
G1 F3600.000
G1 X0.960 Y0.960 E0.883
G1 X0.960 Y29.040 E0.883
G1 X29.040 Y29.040 E0.883
G1 X29.040 Y0.960 E0.883

;LAYER:14
G1 Z3.000 F3600.000
G0 X0.000 Y30.000 F7200.000
G92 E0 ; reset extruder
G1 F3600.000
G1 X30.000 Y30.000 E0.943
G1 X30.000 Y0.000 E0.943
G1 X0.000 Y0.000 E0.943
G1 X0.000 Y30.000 E0.943
G1 X0.000 Y30.000 E0.000
G0 X29.520 Y0.480 F7200.000
G92 E0 ; reset extruder
G1 F3600.000
G1 X0.480 Y0.480 E0.913
G1 X0.480 Y29.520 E0.913
G1 X29.520 Y29.520 E0.913
G1 X29.520 Y0.480 E0.913
G0 X29.040 Y0.960 F7200.000
G92 E0 ; reset extruder
G1 F3600.000
G1 X0.960 Y0.960 E0.883
G1 X0.960 Y29.040 E0.883
G1 X29.040 Y29.040 E0.883
G1 X29.040 Y0.960 E0.883

;LAYER:15
G1 Z3.200 F3600.000
G0 X0.000 Y30.000 F7200.000
G92 E0 ; reset extruder
G1 F3600.000
G1 X30.000 Y30.000 E0.943
G1 X30.000 Y0.000 E0.943
G1 X0.000 Y0.000 E0.943
G1 X0.000 Y30.000 E0.943
G1 X0.000 Y30.000 E0.000
G0 X29.520 Y0.480 F7200.000
G92 E0 ; reset extruder
G1 F3600.000
G1 X0.480 Y0.480 E0.913
G1 X0.480 Y29.520 E0.913
G1 X29.520 Y29.520 E0.913
G1 X29.520 Y0.480 E0.913
G0 X29.040 Y0.960 F7200.000
G92 E0 ; reset extruder
G1 F3600.000
G1 X0.960 Y0.960 E0.883
G1 X0.960 Y29.040 E0.883
G1 X29.040 Y29.040 E0.883
G1 X29.040 Y0.960 E0.883

;LAYER:16
G1 Z3.400 F3600.000
G0 X0.000 Y30.000 F7200.000
G92 E0 ; reset extruder
G1 F3600.000
G1 X30.000 Y30.000 E0.943
G1 X30.000 Y0.000 E0.943
G1 X0.000 Y0.000 E0.943
G1 X0.000 Y30.000 E0.943
G1 X0.000 Y30.000 E0.000
G0 X29.520 Y0.480 F7200.000
G92 E0 ; reset extruder
G1 F3600.000
G1 X0.480 Y0.480 E0.913
G1 X0.480 Y29.520 E0.913
G1 X29.520 Y29.520 E0.913
G1 X29.520 Y0.480 E0.913
G0 X29.040 Y0.960 F7200.000
G92 E0 ; reset extruder
G1 F3600.000
G1 X0.960 Y0.960 E0.883
G1 X0.960 Y29.040 E0.883
G1 X29.040 Y29.040 E0.883
G1 X29.040 Y0.960 E0.883

;LAYER:17
G1 Z3.600 F3600.000
G0 X0.000 Y30.000 F7200.000
G92 E0 ; reset extruder
G1 F3600.000
G1 X30.000 Y30.000 E0.943
G1 X30.000 Y0.000 E0.943
G1 X0.000 Y0.000 E0.943
G1 X0.000 Y30.000 E0.943
G1 X0.000 Y30.000 E0.000
G0 X29.520 Y0.480 F7200.000
G92 E0 ; reset extruder
G1 F3600.000
G1 X0.480 Y0.480 E0.913
G1 X0.480 Y29.520 E0.913
G1 X29.520 Y29.520 E0.913
G1 X29.520 Y0.480 E0.913
G0 X29.040 Y0.960 F7200.000
G92 E0 ; reset extruder
G1 F3600.000
G1 X0.960 Y0.960 E0.883
G1 X0.960 Y29.040 E0.883
G1 X29.040 Y29.040 E0.883
G1 X29.040 Y0.960 E0.883

;LAYER:18
G1 Z3.800 F3600.000
G0 X0.000 Y30.000 F7200.000
G92 E0 ; reset extruder
G1 F3600.000
G1 X30.000 Y30.000 E0.943
G1 X30.000 Y0.000 E0.943
G1 X0.000 Y0.000 E0.943
G1 X0.000 Y30.000 E0.943
G1 X0.000 Y30.000 E0.000
G0 X29.520 Y0.480 F7200.000
G92 E0 ; reset extruder
G1 F3600.000
G1 X0.480 Y0.480 E0.913
G1 X0.480 Y29.520 E0.913
G1 X29.520 Y29.520 E0.913
G1 X29.520 Y0.480 E0.913
G0 X29.040 Y0.960 F7200.000
G92 E0 ; reset extruder
G1 F3600.000
G1 X0.960 Y0.960 E0.883
G1 X0.960 Y29.040 E0.883
G1 X29.040 Y29.040 E0.883
G1 X29.040 Y0.960 E0.883

;LAYER:19
G1 Z4.000 F3600.000
G0 X0.000 Y30.000 F7200.000
G92 E0 ; reset extruder
G1 F3600.000
G1 X30.000 Y30.000 E0.943
G1 X30.000 Y0.000 E0.943
G1 X0.000 Y0.000 E0.943
G1 X0.000 Y30.000 E0.943
G1 X0.000 Y30.000 E0.000
G0 X29.520 Y0.480 F7200.000
G92 E0 ; reset extruder
G1 F3600.000
G1 X0.480 Y0.480 E0.913
G1 X0.480 Y29.520 E0.913
G1 X29.520 Y29.520 E0.913
G1 X29.520 Y0.480 E0.913
G0 X29.040 Y0.960 F7200.000
G92 E0 ; reset extruder
G1 F3600.000
G1 X0.960 Y0.960 E0.883
G1 X0.960 Y29.040 E0.883
G1 X29.040 Y29.040 E0.883
G1 X29.040 Y0.960 E0.883

;LAYER:20
G1 Z4.200 F3600.000
G0 X0.000 Y30.000 F7200.000
G92 E0 ; reset extruder
G1 F3600.000
G1 X30.000 Y30.000 E0.943
G1 X30.000 Y0.000 E0.943
G1 X0.000 Y0.000 E0.943
G1 X0.000 Y30.000 E0.943
G1 X0.000 Y30.000 E0.000
G0 X29.520 Y0.480 F7200.000
G92 E0 ; reset extruder
G1 F3600.000
G1 X0.480 Y0.480 E0.913
G1 X0.480 Y29.520 E0.913
G1 X29.520 Y29.520 E0.913
G1 X29.520 Y0.480 E0.913
G0 X29.040 Y0.960 F7200.000
G92 E0 ; reset extruder
G1 F3600.000
G1 X0.960 Y0.960 E0.883
G1 X0.960 Y29.040 E0.883
G1 X29.040 Y29.040 E0.883
G1 X29.040 Y0.960 E0.883

;LAYER:21
G1 Z4.400 F3600.000
G0 X0.000 Y30.000 F7200.000
G92 E0 ; reset extruder
G1 F3600.000
G1 X30.000 Y30.000 E0.943
G1 X30.000 Y0.000 E0.943
G1 X0.000 Y0.000 E0.943
G1 X0.000 Y30.000 E0.943
G1 X0.000 Y30.000 E0.000
G0 X29.520 Y0.480 F7200.000
G92 E0 ; reset extruder
G1 F3600.000
G1 X0.480 Y0.480 E0.913
G1 X0.480 Y29.520 E0.913
G1 X29.520 Y29.520 E0.913
G1 X29.520 Y0.480 E0.913
G0 X29.040 Y0.960 F7200.000
G92 E0 ; reset extruder
G1 F3600.000
G1 X0.960 Y0.960 E0.883
G1 X0.960 Y29.040 E0.883
G1 X29.040 Y29.040 E0.883
G1 X29.040 Y0.960 E0.883

;LAYER:22
G1 Z4.600 F3600.000
G0 X0.000 Y30.000 F7200.000
G92 E0 ; reset extruder
G1 F3600.000
G1 X30.000 Y30.000 E0.943
G1 X30.000 Y0.000 E0.943
G1 X0.000 Y0.000 E0.943
G1 X0.000 Y30.000 E0.943
G1 X0.000 Y30.000 E0.000
G0 X29.520 Y0.480 F7200.000
G92 E0 ; reset extruder
G1 F3600.000
G1 X0.480 Y0.480 E0.913
G1 X0.480 Y29.520 E0.913
G1 X29.520 Y29.520 E0.913
G1 X29.520 Y0.480 E0.913
G0 X29.040 Y0.960 F7200.000
G92 E0 ; reset extruder
G1 F3600.000
G1 X0.960 Y0.960 E0.883
G1 X0.960 Y29.040 E0.883
G1 X29.040 Y29.040 E0.883
G1 X29.040 Y0.960 E0.883

;LAYER:23
G1 Z4.800 F3600.000
G0 X0.000 Y30.000 F7200.000
G92 E0 ; reset extruder
G1 F3600.000
G1 X30.000 Y30.000 E0.943
G1 X30.000 Y0.000 E0.943
G1 X0.000 Y0.000 E0.943
G1 X0.000 Y30.000 E0.943
G1 X0.000 Y30.000 E0.000
G0 X29.520 Y0.480 F7200.000
G92 E0 ; reset extruder
G1 F3600.000
G1 X0.480 Y0.480 E0.913
G1 X0.480 Y29.520 E0.913
G1 X29.520 Y29.520 E0.913
G1 X29.520 Y0.480 E0.913
G0 X29.040 Y0.960 F7200.000
G92 E0 ; reset extruder
G1 F3600.000
G1 X0.960 Y0.960 E0.883
G1 X0.960 Y29.040 E0.883
G1 X29.040 Y29.040 E0.883
G1 X29.040 Y0.960 E0.883

;LAYER:24
G1 Z5.000 F3600.000
G0 X0.000 Y30.000 F7200.000
G92 E0 ; reset extruder
G1 F3600.000
G1 X30.000 Y30.000 E0.943
G1 X30.000 Y0.000 E0.943
G1 X0.000 Y0.000 E0.943
G1 X0.000 Y30.000 E0.943
G1 X0.000 Y30.000 E0.000
G0 X29.520 Y0.480 F7200.000
G92 E0 ; reset extruder
G1 F3600.000
G1 X0.480 Y0.480 E0.913
G1 X0.480 Y29.520 E0.913
G1 X29.520 Y29.520 E0.913
G1 X29.520 Y0.480 E0.913
G0 X29.040 Y0.960 F7200.000
G92 E0 ; reset extruder
G1 F3600.000
G1 X0.960 Y0.960 E0.883
G1 X0.960 Y29.040 E0.883
G1 X29.040 Y29.040 E0.883
G1 X29.040 Y0.960 E0.883

;LAYER:25
G1 Z5.200 F3600.000
G0 X0.000 Y30.000 F7200.000
G92 E0 ; reset extruder
G1 F3600.000
G1 X30.000 Y30.000 E0.943
G1 X30.000 Y0.000 E0.943
G1 X0.000 Y0.000 E0.943
G1 X0.000 Y30.000 E0.943
G1 X0.000 Y30.000 E0.000
G0 X29.520 Y0.480 F7200.000
G92 E0 ; reset extruder
G1 F3600.000
G1 X0.480 Y0.480 E0.913
G1 X0.480 Y29.520 E0.913
G1 X29.520 Y29.520 E0.913
G1 X29.520 Y0.480 E0.913
G0 X29.040 Y0.960 F7200.000
G92 E0 ; reset extruder
G1 F3600.000
G1 X0.960 Y0.960 E0.883
G1 X0.960 Y29.040 E0.883
G1 X29.040 Y29.040 E0.883
G1 X29.040 Y0.960 E0.883

;LAYER:26
G1 Z5.400 F3600.000
G0 X0.000 Y30.000 F7200.000
G92 E0 ; reset extruder
G1 F3600.000
G1 X30.000 Y30.000 E0.943
G1 X30.000 Y0.000 E0.943
G1 X0.000 Y0.000 E0.943
G1 X0.000 Y30.000 E0.943
G1 X0.000 Y30.000 E0.000
G0 X29.520 Y0.480 F7200.000
G92 E0 ; reset extruder
G1 F3600.000
G1 X0.480 Y0.480 E0.913
G1 X0.480 Y29.520 E0.913
G1 X29.520 Y29.520 E0.913
G1 X29.520 Y0.480 E0.913
