; Generated by N3XT Slicer
; Layer height: 0.200
; Nozzle diameter: 0.400

G21 ; Set units to millimeters
G90 ; Use absolute positioning
M83 ; Use relative distances for extrusion
M104 S210.000 ; Set nozzle temperature
M140 S60.000 ; Set bed temperature
M190 S60.000 ; Wait for bed temperature
M109 S210.000 ; Wait for nozzle temperature

G28 ; Home all axes
G1 Z0.200 F1200.000
G92 E0 ; Reset extruder position

; LAYER:0
G1 Z0.200 F3600.000
G0 X0.000 Y0.000 F7200.000
G92 E0
G1 F1200.000
G1 X30.000 Y0.000 E1.078
G1 X30.000 Y30.000 E1.078
G1 X0.000 Y30.000 E1.078
G1 X0.000 Y0.000 E1.078
G1 X0.000 Y0.000 E0.000
G0 X29.520 Y0.480 F7200.000
G92 E0
G1 F1200.000
G1 X29.520 Y29.520 E1.043
G1 X0.480 Y29.520 E1.043
G1 X0.480 Y0.480 E1.043
G1 X29.520 Y0.480 E1.043
G0 X29.040 Y0.960 F7200.000
G92 E0
G1 F1200.000
G1 X29.040 Y29.040 E1.009
G1 X0.960 Y29.040 E1.009
G1 X0.960 Y0.960 E1.009
G1 X29.040 Y0.960 E1.009

; LAYER:1
G1 Z0.400 F3600.000
G0 X0.000 Y30.000 F7200.000
G92 E0
G1 F3600.000
G1 X0.200 Y30.000 E0.007
G1 X30.000 Y30.000 E1.070
G1 X30.000 Y29.800 E0.007
G1 X30.000 Y0.000 E1.070
G1 X0.200 Y0.000 E1.070
G1 X0.000 Y0.000 E0.007
G1 X0.000 Y29.800 E1.070
G1 X0.000 Y30.000 E0.007
G1 X0.000 Y30.000 E0.000
G0 X29.520 Y0.480 F7200.000
G92 E0
G1 F3600.000
G1 X0.480 Y0.480 E1.043
G1 X0.480 Y29.520 E1.043
G1 X29.520 Y29.520 E1.043
G1 X29.520 Y0.480 E1.043
G0 X29.040 Y0.960 F7200.000
G92 E0
G1 F3600.000
G1 X0.960 Y0.960 E1.009
G1 X0.960 Y29.040 E1.009
G1 X29.040 Y29.040 E1.009
G1 X29.040 Y0.960 E1.009

; LAYER:2
G1 Z0.600 F3600.000
G0 X0.000 Y30.000 F7200.000
G92 E0
G1 F3600.000
G1 X0.400 Y30.000 E0.014
G1 X30.000 Y30.000 E1.063
G1 X30.000 Y29.600 E0.014
G1 X30.000 Y0.000 E1.063
G1 X0.400 Y0.000 E1.063
G1 X0.000 Y0.000 E0.014
G1 X0.000 Y29.600 E1.063
G1 X0.000 Y30.000 E0.014
G1 X0.000 Y30.000 E0.000
G0 X29.520 Y0.480 F7200.000
G92 E0
G1 F3600.000
G1 X0.480 Y0.480 E1.043
G1 X0.480 Y29.520 E1.043
G1 X29.520 Y29.520 E1.043
G1 X29.520 Y0.480 E1.043
G0 X29.040 Y0.960 F7200.000
G92 E0
G1 F3600.000
G1 X0.960 Y0.960 E1.009
G1 X0.960 Y29.040 E1.009
G1 X29.040 Y29.040 E1.009
G1 X29.040 Y0.960 E1.009

; LAYER:3
G1 Z0.800 F3600.000
G0 X0.000 Y30.000 F7200.000
G92 E0
G1 F3600.000
G1 X0.600 Y30.000 E0.022
G1 X30.000 Y30.000 E1.056
G1 X30.000 Y29.400 E0.022
G1 X30.000 Y0.000 E1.056
G1 X0.600 Y0.000 E1.056
G1 X0.000 Y0.000 E0.022
G1 X0.000 Y29.400 E1.056
G1 X0.000 Y30.000 E0.022
G1 X0.000 Y30.000 E0.000
G0 X29.520 Y0.480 F7200.000
G92 E0
G1 F3600.000
G1 X0.480 Y0.480 E1.043
G1 X0.480 Y29.520 E1.043
G1 X29.520 Y29.520 E1.043
G1 X29.520 Y0.480 E1.043
G0 X29.040 Y0.960 F7200.000
G92 E0
G1 F3600.000
G1 X0.960 Y0.960 E1.009
G1 X0.960 Y29.040 E1.009
G1 X29.040 Y29.040 E1.009
G1 X29.040 Y0.960 E1.009

; LAYER:4
G1 Z1.000 F3600.000
G0 X0.000 Y30.000 F7200.000
G92 E0
G1 F3600.000
G1 X0.800 Y30.000 E0.029
G1 X30.000 Y30.000 E1.049
G1 X30.000 Y29.200 E0.029
G1 X30.000 Y0.000 E1.049
G1 X0.800 Y0.000 E1.049
G1 X0.000 Y0.000 E0.029
G1 X0.000 Y29.200 E1.049
G1 X0.000 Y30.000 E0.029
G1 X0.000 Y30.000 E0.000
G0 X29.520 Y0.480 F7200.000
G92 E0
G1 F3600.000
G1 X0.480 Y0.480 E1.043
G1 X0.480 Y29.520 E1.043
G1 X29.520 Y29.520 E1.043
G1 X29.520 Y0.480 E1.043
G0 X29.040 Y0.960 F7200.000
G92 E0
G1 F3600.000
G1 X0.960 Y0.960 E1.009
G1 X0.960 Y29.040 E1.009
G1 X29.040 Y29.040 E1.009
G1 X29.040 Y0.960 E1.009

; LAYER:5
G1 Z1.200 F3600.000
G0 X0.000 Y30.000 F7200.000
G92 E0
G1 F3600.000
G1 X1.000 Y30.000 E0.036
G1 X30.000 Y30.000 E1.042
G1 X30.000 Y29.000 E0.036
G1 X30.000 Y0.000 E1.042
G1 X1.000 Y0.000 E1.042
G1 X0.000 Y0.000 E0.036
G1 X0.000 Y29.000 E1.042
G1 X0.000 Y30.000 E0.036
G1 X0.000 Y30.000 E0.000
G0 X29.520 Y0.480 F7200.000
G92 E0
G1 F3600.000
G1 X0.480 Y0.480 E1.043
G1 X0.480 Y29.520 E1.043
G1 X29.520 Y29.520 E1.043
G1 X29.520 Y0.480 E1.043
G0 X29.040 Y0.960 F7200.000
G92 E0
G1 F3600.000
G1 X0.960 Y0.960 E1.009
G1 X0.960 Y29.040 E1.009
G1 X29.040 Y29.040 E1.009
G1 X29.040 Y0.960 E1.009

; LAYER:6
G1 Z1.400 F3600.000
G0 X0.000 Y30.000 F7200.000
G92 E0
G1 F3600.000
G1 X1.200 Y30.000 E0.043
G1 X30.000 Y30.000 E1.035
G1 X30.000 Y28.800 E0.043
G1 X30.000 Y0.000 E1.035
G1 X1.200 Y0.000 E1.035
G1 X0.000 Y0.000 E0.043
G1 X0.000 Y28.800 E1.035
G1 X0.000 Y30.000 E0.043
G1 X0.000 Y30.000 E0.000
G0 X29.520 Y0.480 F7200.000
G92 E0
G1 F3600.000
G1 X0.480 Y0.480 E1.043
G1 X0.480 Y29.520 E1.043
G1 X29.520 Y29.520 E1.043
G1 X29.520 Y0.480 E1.043
G0 X29.040 Y0.960 F7200.000
G92 E0
G1 F3600.000
G1 X0.960 Y0.960 E1.009
G1 X0.960 Y29.040 E1.009
G1 X29.040 Y29.040 E1.009
G1 X29.040 Y0.960 E1.009

; LAYER:7
G1 Z1.600 F3600.000
G0 X0.000 Y30.000 F7200.000
G92 E0
G1 F3600.000
G1 X1.400 Y30.000 E0.050
G1 X30.000 Y30.000 E1.027
G1 X30.000 Y28.600 E0.050
G1 X30.000 Y0.000 E1.027
G1 X1.400 Y0.000 E1.027
G1 X0.000 Y0.000 E0.050
G1 X0.000 Y28.600 E1.027
G1 X0.000 Y30.000 E0.050
G1 X0.000 Y30.000 E0.000
G0 X29.520 Y0.480 F7200.000
G92 E0
G1 F3600.000
G1 X0.480 Y0.480 E1.043
G1 X0.480 Y29.520 E1.043
G1 X29.520 Y29.520 E1.043
G1 X29.520 Y0.480 E1.043
G0 X29.040 Y0.960 F7200.000
G92 E0
G1 F3600.000
G1 X0.960 Y0.960 E1.009
G1 X0.960 Y29.040 E1.009
G1 X29.040 Y29.040 E1.009
G1 X29.040 Y0.960 E1.009

; LAYER:8
G1 Z1.800 F3600.000
G0 X0.000 Y30.000 F7200.000
G92 E0
G1 F3600.000
G1 X1.600 Y30.000 E0.057
G1 X30.000 Y30.000 E1.020
G1 X30.000 Y28.400 E0.057
G1 X30.000 Y0.000 E1.020
G1 X1.600 Y0.000 E1.020
G1 X0.000 Y0.000 E0.057
G1 X0.000 Y28.400 E1.020
G1 X0.000 Y30.000 E0.057
G1 X0.000 Y30.000 E0.000
G0 X29.520 Y0.480 F7200.000
G92 E0
G1 F3600.000
G1 X0.480 Y0.480 E1.043
G1 X0.480 Y29.520 E1.043
G1 X29.520 Y29.520 E1.043
G1 X29.520 Y0.480 E1.043
G0 X29.040 Y0.960 F7200.000
G92 E0
G1 F3600.000
G1 X0.960 Y0.960 E1.009
G1 X0.960 Y29.040 E1.009
G1 X29.040 Y29.040 E1.009
G1 X29.040 Y0.960 E1.009

; LAYER:9
G1 Z2.000 F3600.000
G0 X0.000 Y30.000 F7200.000
G92 E0
G1 F3600.000
G1 X1.800 Y30.000 E0.065
G1 X30.000 Y30.000 E1.013
G1 X30.000 Y28.200 E0.065
G1 X30.000 Y0.000 E1.013
G1 X1.800 Y0.000 E1.013
G1 X0.000 Y0.000 E0.065
G1 X0.000 Y28.200 E1.013
G1 X0.000 Y30.000 E0.065
G1 X0.000 Y30.000 E0.000
G0 X29.520 Y0.480 F7200.000
G92 E0
G1 F3600.000
G1 X0.480 Y0.480 E1.043
G1 X0.480 Y29.520 E1.043
G1 X29.520 Y29.520 E1.043
G1 X29.520 Y0.480 E1.043
G0 X29.040 Y0.960 F7200.000
G92 E0
G1 F3600.000
G1 X0.960 Y0.960 E1.009
G1 X0.960 Y29.040 E1.009
G1 X29.040 Y29.040 E1.009
G1 X29.040 Y0.960 E1.009

; LAYER:10
G1 Z2.200 F3600.000
G0 X0.000 Y30.000 F7200.000
G92 E0
G1 F3600.000
G1 X2.000 Y30.000 E0.072
G1 X30.000 Y30.000 E1.006
G1 X30.000 Y28.000 E0.072
G1 X30.000 Y0.000 E1.006
G1 X2.000 Y0.000 E1.006
G1 X0.000 Y0.000 E0.072
G1 X0.000 Y28.000 E1.006
G1 X0.000 Y30.000 E0.072
G1 X0.000 Y30.000 E0.000
G0 X29.520 Y0.480 F7200.000
G92 E0
G1 F3600.000
G1 X0.480 Y0.480 E1.043
G1 X0.480 Y29.520 E1.043
G1 X29.520 Y29.520 E1.043
G1 X29.520 Y0.480 E1.043
G0 X29.040 Y0.960 F7200.000
G92 E0
G1 F3600.000
G1 X0.960 Y0.960 E1.009
G1 X0.960 Y29.040 E1.009
G1 X29.040 Y29.040 E1.009
G1 X29.040 Y0.960 E1.009

; LAYER:11
G1 Z2.400 F3600.000
G0 X0.000 Y30.000 F7200.000
G92 E0
G1 F3600.000
G1 X2.200 Y30.000 E0.079
G1 X30.000 Y30.000 E0.999
G1 X30.000 Y27.800 E0.079
G1 X30.000 Y0.000 E0.999
G1 X2.200 Y0.000 E0.999
G1 X0.000 Y0.000 E0.079
G1 X0.000 Y27.800 E0.999
G1 X0.000 Y30.000 E0.079
G1 X0.000 Y30.000 E0.000
G0 X29.520 Y0.480 F7200.000
G92 E0
G1 F3600.000
G1 X0.480 Y0.480 E1.043
G1 X0.480 Y29.520 E1.043
G1 X29.520 Y29.520 E1.043
G1 X29.520 Y0.480 E1.043
G0 X29.040 Y0.960 F7200.000
G92 E0
G1 F3600.000
G1 X0.960 Y0.960 E1.009
G1 X0.960 Y29.040 E1.009
G1 X29.040 Y29.040 E1.009
G1 X29.040 Y0.960 E1.009

; LAYER:12
G1 Z2.600 F3600.000
G0 X0.000 Y30.000 F7200.000
G92 E0
G1 F3600.000
G1 X2.400 Y30.000 E0.086
G1 X30.000 Y30.000 E0.991
G1 X30.000 Y27.600 E0.086
G1 X30.000 Y0.000 E0.991
G1 X2.400 Y0.000 E0.991
G1 X0.000 Y0.000 E0.086
G1 X0.000 Y27.600 E0.991
G1 X0.000 Y30.000 E0.086
G1 X0.000 Y30.000 E0.000
G0 X29.520 Y0.480 F7200.000
G92 E0
G1 F3600.000
G1 X0.480 Y0.480 E1.043
G1 X0.480 Y29.520 E1.043
G1 X29.520 Y29.520 E1.043
G1 X29.520 Y0.480 E1.043
G0 X29.040 Y0.960 F7200.000
G92 E0
G1 F3600.000
G1 X0.960 Y0.960 E1.009
G1 X0.960 Y29.040 E1.009
G1 X29.040 Y29.040 E1.009
G1 X29.040 Y0.960 E1.009

; LAYER:13
G1 Z2.800 F3600.000
G0 X0.000 Y30.000 F7200.000
G92 E0
G1 F3600.000
G1 X2.600 Y30.000 E0.093
G1 X30.000 Y30.000 E0.984
G1 X30.000 Y27.400 E0.093
G1 X30.000 Y0.000 E0.984
G1 X2.600 Y0.000 E0.984
G1 X0.000 Y0.000 E0.093
G1 X0.000 Y27.400 E0.984
G1 X0.000 Y30.000 E0.093
G1 X0.000 Y30.000 E0.000
G0 X29.520 Y0.480 F7200.000
G92 E0
G1 F3600.000
G1 X0.480 Y0.480 E1.043
G1 X0.480 Y29.520 E1.043
G1 X29.520 Y29.520 E1.043
G1 X29.520 Y0.480 E1.043
G0 X29.040 Y0.960 F7200.000
G92 E0
G1 F3600.000
G1 X0.960 Y0.960 E1.009
G1 X0.960 Y29.040 E1.009
G1 X29.040 Y29.040 E1.009
G1 X29.040 Y0.960 E1.009

; LAYER:14
G1 Z3.000 F3600.000
G0 X0.000 Y30.000 F7200.000
G92 E0
G1 F3600.000
G1 X2.800 Y30.000 E0.101
G1 X30.000 Y30.000 E0.977
G1 X30.000 Y27.200 E0.101
G1 X30.000 Y0.000 E0.977
G1 X2.800 Y0.000 E0.977
G1 X0.000 Y0.000 E0.101
G1 X0.000 Y27.200 E0.977
G1 X0.000 Y30.000 E0.101
G1 X0.000 Y30.000 E0.000
G0 X29.520 Y0.480 F7200.000
G92 E0
G1 F3600.000
G1 X0.480 Y0.480 E1.043
G1 X0.480 Y29.520 E1.043
G1 X29.520 Y29.520 E1.043
G1 X29.520 Y0.480 E1.043
G0 X29.040 Y0.960 F7200.000
G92 E0
G1 F3600.000
G1 X0.960 Y0.960 E1.009
G1 X0.960 Y29.040 E1.009
G1 X29.040 Y29.040 E1.009
G1 X29.040 Y0.960 E1.009

; LAYER:15
G1 Z3.200 F3600.000
G0 X0.000 Y30.000 F7200.000
G92 E0
G1 F3600.000
G1 X3.000 Y30.000 E0.108
G1 X30.000 Y30.000 E0.970
G1 X30.000 Y27.000 E0.108
G1 X30.000 Y0.000 E0.970
G1 X3.000 Y0.000 E0.970
G1 X0.000 Y0.000 E0.108
G1 X0.000 Y27.000 E0.970
G1 X0.000 Y30.000 E0.108
G1 X0.000 Y30.000 E0.000
G0 X29.520 Y0.480 F7200.000
G92 E0
G1 F3600.000
G1 X0.480 Y0.480 E1.043
G1 X0.480 Y29.520 E1.043
G1 X29.520 Y29.520 E1.043
G1 X29.520 Y0.480 E1.043
G0 X29.040 Y0.960 F7200.000
G92 E0
G1 F3600.000
G1 X0.960 Y0.960 E1.009
G1 X0.960 Y29.040 E1.009
G1 X29.040 Y29.040 E1.009
G1 X29.040 Y0.960 E1.009

; LAYER:16
G1 Z3.400 F3600.000
G0 X0.000 Y30.000 F7200.000
G92 E0
G1 F3600.000
G1 X3.200 Y30.000 E0.115
G1 X30.000 Y30.000 E0.963
G1 X30.000 Y26.800 E0.115
G1 X30.000 Y0.000 E0.963
G1 X3.200 Y0.000 E0.963
G1 X0.000 Y0.000 E0.115
G1 X0.000 Y26.800 E0.963
G1 X0.000 Y30.000 E0.115
G1 X0.000 Y30.000 E0.000
G0 X29.520 Y0.480 F7200.000
G92 E0
G1 F3600.000
G1 X0.480 Y0.480 E1.043
G1 X0.480 Y29.520 E1.043
G1 X29.520 Y29.520 E1.043
G1 X29.520 Y0.480 E1.043
G0 X29.040 Y0.960 F7200.000
G92 E0
G1 F3600.000
G1 X0.960 Y0.960 E1.009
G1 X0.960 Y29.040 E1.009
G1 X29.040 Y29.040 E1.009
G1 X29.040 Y0.960 E1.009

; LAYER:17
G1 Z3.600 F3600.000
G0 X0.000 Y30.000 F7200.000
G92 E0
G1 F3600.000
G1 X3.400 Y30.000 E0.122
G1 X30.000 Y30.000 E0.955
G1 X30.000 Y26.600 E0.122
G1 X30.000 Y0.000 E0.955
G1 X3.400 Y0.000 E0.955
G1 X0.000 Y0.000 E0.122
G1 X0.000 Y26.600 E0.955
G1 X0.000 Y30.000 E0.122
G1 X0.000 Y30.000 E0.000
G0 X29.520 Y0.480 F7200.000
G92 E0
G1 F3600.000
G1 X0.480 Y0.480 E1.043
G1 X0.480 Y29.520 E1.043
G1 X29.520 Y29.520 E1.043
G1 X29.520 Y0.480 E1.043
G0 X29.040 Y0.960 F7200.000
G92 E0
G1 F3600.000
G1 X0.960 Y0.960 E1.009
G1 X0.960 Y29.040 E1.009
G1 X29.040 Y29.040 E1.009
G1 X29.040 Y0.960 E1.009

; LAYER:18
G1 Z3.800 F3600.000
G0 X0.000 Y30.000 F7200.000
G92 E0
G1 F3600.000
G1 X3.600 Y30.000 E0.129
G1 X30.000 Y30.000 E0.948
G1 X30.000 Y26.400 E0.129
G1 X30.000 Y0.000 E0.948
G1 X3.600 Y0.000 E0.948
G1 X0.000 Y0.000 E0.129
G1 X0.000 Y26.400 E0.948
G1 X0.000 Y30.000 E0.129
G1 X0.000 Y30.000 E0.000
G0 X29.520 Y0.480 F7200.000
G92 E0
G1 F3600.000
G1 X0.480 Y0.480 E1.043
G1 X0.480 Y29.520 E1.043
G1 X29.520 Y29.520 E1.043
G1 X29.520 Y0.480 E1.043
G0 X29.040 Y0.960 F7200.000
G92 E0
G1 F3600.000
G1 X0.960 Y0.960 E1.009
G1 X0.960 Y29.040 E1.009
G1 X29.040 Y29.040 E1.009
G1 X29.040 Y0.960 E1.009

; LAYER:19
G1 Z4.000 F3600.000
G0 X0.000 Y30.000 F7200.000
G92 E0
G1 F3600.000
G1 X3.800 Y30.000 E0.136
G1 X30.000 Y30.000 E0.941
G1 X30.000 Y26.200 E0.136
G1 X30.000 Y0.000 E0.941
G1 X3.800 Y0.000 E0.941
G1 X0.000 Y0.000 E0.136
G1 X0.000 Y26.200 E0.941
G1 X0.000 Y30.000 E0.136
G1 X0.000 Y30.000 E0.000
G0 X29.520 Y0.480 F7200.000
G92 E0
G1 F3600.000
G1 X0.480 Y0.480 E1.043
G1 X0.480 Y29.520 E1.043
G1 X29.520 Y29.520 E1.043
G1 X29.520 Y0.480 E1.043
G0 X29.040 Y0.960 F7200.000
G92 E0
G1 F3600.000
G1 X0.960 Y0.960 E1.009
G1 X0.960 Y29.040 E1.009
G1 X29.040 Y29.040 E1.009
G1 X29.040 Y0.960 E1.009

; LAYER:20
G1 Z4.200 F3600.000
G0 X0.000 Y30.000 F7200.000
G92 E0
G1 F3600.000
G1 X4.000 Y30.000 E0.144
G1 X30.000 Y30.000 E0.934
G1 X30.000 Y26.000 E0.144
G1 X30.000 Y0.000 E0.934
G1 X4.000 Y0.000 E0.934
G1 X0.000 Y0.000 E0.144
G1 X0.000 Y26.000 E0.934
G1 X0.000 Y30.000 E0.144
G1 X0.000 Y30.000 E0.000
G0 X29.520 Y0.480 F7200.000
G92 E0
G1 F3600.000
G1 X0.480 Y0.480 E1.043
G1 X0.480 Y29.520 E1.043
G1 X29.520 Y29.520 E1.043
G1 X29.520 Y0.480 E1.043
G0 X29.040 Y0.960 F7200.000
G92 E0
G1 F3600.000
G1 X0.960 Y0.960 E1.009
G1 X0.960 Y29.040 E1.009
G1 X29.040 Y29.040 E1.009
G1 X29.040 Y0.960 E1.009

; LAYER:21
G1 Z4.400 F3600.000
G0 X0.000 Y30.000 F7200.000
G92 E0
G1 F3600.000
G1 X4.200 Y30.000 E0.151
G1 X30.000 Y30.000 E0.927
G1 X30.000 Y25.800 E0.151
G1 X30.000 Y0.000 E0.927
G1 X4.200 Y0.000 E0.927
G1 X0.000 Y0.000 E0.151
G1 X0.000 Y25.800 E0.927
G1 X0.000 Y30.000 E0.151
G1 X0.000 Y30.000 E0.000
G0 X29.520 Y0.480 F7200.000
G92 E0
G1 F3600.000
G1 X0.480 Y0.480 E1.043
G1 X0.480 Y29.520 E1.043
G1 X29.520 Y29.520 E1.043
G1 X29.520 Y0.480 E1.043
G0 X29.040 Y0.960 F7200.000
G92 E0
G1 F3600.000
G1 X0.960 Y0.960 E1.009
G1 X0.960 Y29.040 E1.009
G1 X29.040 Y29.040 E1.009
G1 X29.040 Y0.960 E1.009

; LAYER:22
G1 Z4.600 F3600.000
G0 X0.000 Y30.000 F7200.000
G92 E0
G1 F3600.000
G1 X4.400 Y30.000 E0.158
G1 X30.000 Y30.000 E0.920
G1 X30.000 Y25.600 E0.158
G1 X30.000 Y0.000 E0.920
G1 X4.400 Y0.000 E0.920
G1 X0.000 Y0.000 E0.158
G1 X0.000 Y25.600 E0.920
G1 X0.000 Y30.000 E0.158
G1 X0.000 Y30.000 E0.000
G0 X29.520 Y0.480 F7200.000
G92 E0
G1 F3600.000
G1 X0.480 Y0.480 E1.043
G1 X0.480 Y29.520 E1.043
G1 X29.520 Y29.520 E1.043
G1 X29.520 Y0.480 E1.043
G0 X29.040 Y0.960 F7200.000
G92 E0
G1 F3600.000
G1 X0.960 Y0.960 E1.009
G1 X0.960 Y29.040 E1.009
G1 X29.040 Y29.040 E1.009
G1 X29.040 Y0.960 E1.009

; LAYER:23
G1 Z4.800 F3600.000
G0 X0.000 Y30.000 F7200.000
G92 E0
G1 F3600.000
G1 X4.600 Y30.000 E0.165
G1 X30.000 Y30.000 E0.912
G1 X30.000 Y25.400 E0.165
G1 X30.000 Y0.000 E0.912
G1 X4.600 Y0.000 E0.912
G1 X0.000 Y0.000 E0.165
G1 X0.000 Y25.400 E0.912
G1 X0.000 Y30.000 E0.165
G1 X0.000 Y30.000 E0.000
G0 X29.520 Y0.480 F7200.000
G92 E0
G1 F3600.000
G1 X0.480 Y0.480 E1.043
G1 X0.480 Y29.520 E1.043
G1 X29.520 Y29.520 E1.043
G1 X29.520 Y0.480 E1.043
G0 X29.040 Y0.960 F7200.000
G92 E0
G1 F3600.000
G1 X0.960 Y0.960 E1.009
G1 X0.960 Y29.040 E1.009
G1 X29.040 Y29.040 E1.009
G1 X29.040 Y0.960 E1.009

; LAYER:24
G1 Z5.000 F3600.000
G0 X0.000 Y30.000 F7200.000
G92 E0
G1 F3600.000
G1 X4.800 Y30.000 E0.172
G1 X30.000 Y30.000 E0.905
G1 X30.000 Y25.200 E0.172
G1 X30.000 Y0.000 E0.905
G1 X4.800 Y0.000 E0.905
G1 X0.000 Y0.000 E0.172
G1 X0.000 Y25.200 E0.905
G1 X0.000 Y30.000 E0.172
G1 X0.000 Y30.000 E0.000
G0 X29.520 Y0.480 F7200.000
G92 E0
G1 F3600.000
G1 X0.480 Y0.480 E1.043
G1 X0.480 Y29.520 E1.043
G1 X29.520 Y29.520 E1.043
G1 X29.520 Y0.480 E1.043
G0 X29.040 Y0.960 F7200.000
G92 E0
G1 F3600.000
G1 X0.960 Y0.960 E1.009
G1 X0.960 Y29.040 E1.009
G1 X29.040 Y29.040 E1.009
G1 X29.040 Y0.960 E1.009

; LAYER:25
G1 Z5.200 F3600.000
G0 X0.000 Y30.000 F7200.000
G92 E0
G1 F3600.000
G1 X5.000 Y30.000 E0.180
G1 X30.000 Y30.000 E0.898
G1 X30.000 Y25.000 E0.180
G1 X30.000 Y0.000 E0.898
G1 X5.000 Y0.000 E0.898
G1 X0.000 Y0.000 E0.180
G1 X0.000 Y25.000 E0.898
G1 X0.000 Y30.000 E0.180
G1 X0.000 Y30.000 E0.000
G0 X29.520 Y0.480 F7200.000
G92 E0
G1 F3600.000
G1 X0.480 Y0.480 E1.043
G1 X0.480 Y29.520 E1.043
G1 X29.520 Y29.520 E1.043
G1 X29.520 Y0.480 E1.043
G0 X29.040 Y0.960 F7200.000
G92 E0
G1 F3600.000
G1 X0.960 Y0.960 E1.009
G1 X0.960 Y29.040 E1.009
G1 X29.040 Y29.040 E1.009
G1 X29.040 Y0.960 E1.009

; LAYER:26
G1 Z5.400 F3600.000
G0 X0.000 Y30.000 F7200.000
G92 E0
